X:023
T:Burke's Jig
T:Connie O'Connell's
B:Bulmer & Sharpley, Music From Ireland, Vol. 2
B:Martin Mulvihill, First Collection of Traditional
B:Irish Music
B:Matt Cranitch, Irish Fiddle Book
Z:Paul de Grae
M:6/8
L:1/8
K:D
dAF AGF|dAF AGF|A,CE GFG|A,CE GFE|
DFA DGB|Ace d2 e|fed cBA|GFE D3:|:
fdf a^ga|fdc d2 f|e^de gfg|efd cde|
fef gfg|aga bag|fed cBA|GFE D3:|
